X:1
T:Clairvaux, CM
T:Clairvaux, CM
T:Herman Adolph Polack, 1910
T:Public Domain Courtesy of the Cyber Hymnal™
C:Herman Adolph Polack, 1910
Z:Public Domain
Z:Courtesy of the Cyber Hymnal™
%%score ( 1 2 ) ( 3 4 )
L:1/8
M:3/4
K:Eb
V:1 treble 
V:2 treble 
V:3 bass 
V:4 bass 
V:1
 [EG]2 [DF]2 E2 | [FB]4 [EG]2 | (A3 G) [DF]2 | [EG]4 [EG]2 | [EG]4 [EG]2 | [F=A]4 [EA]2 | [DB]6 | %7
 [GB]2 [FA]2 [EG]2 | [Dc]4 [Fc]2 | (d3 c) [FB]2 | [Ee]6 | [Ae]2 [Ec]2 [FA]2 | (G3 A) [DF]2 | %13
 [B,E]6 |] %14
V:2
 x4 E2 | x6 | C4 x2 | x6 | x6 | x6 | x6 | x6 | x6 | F4 x2 | x6 | x6 | E4 x2 | x6 |] %14
V:3
 [E,B,]2 [F,A,]2 [G,B,]2 | [D,B,]4 [E,B,]2 | [F,A,]4 [B,,B,]2 | [E,B,]4 [E,B,]2 | [C,C]4 [C,C]2 | %5
 [F,C]4 [F,C]2 | [B,,B,]6 | [E,G,]2 [F,A,]2 [G,B,]2 | A,4 [F,A,]2 | [B,,B,]4 [B,E]2 | [G,B,]6 | %11
 [A,C]2 A,2 [A,,C]2 | [B,,B,]4 [B,,A,]2 | [E,G,]6 |] %14
V:4
 x6 | x6 | x6 | x6 | x6 | x6 | x6 | x6 | A,4 x2 | x6 | x6 | x2 A,2 x2 | x6 | x6 |] %14

